X: 20602
T: Carlands Devotion
%R: march
B: James Oswald "The Caledonian Pocket Companion" v.2 p.60 #2
Z: 2019 John Chambers <jc:trillian.mit.edu>
M: 2/4
L: 1/8
K: Am
%%slurgraces 1
%%graceslurs 1
"_Slow"G |\
TEDEG | TA2G>A | {A}Bc/B/ (TAG) | {G}d3 d |\
(Ted)(e^f) | g2 (g/a/b) | G2 Te(d/B/) | A3 :: B |\
GB d(e/^f/) | (g>a) ba/b/ | Tg(e/g/) {e}dB |
{B}d3 d |\
(Ted)(e^f) | gGga | baTg^f | e3 ^f |\
gGga | b(a/b/) Tge | g(e/g/) {e}TdB | {B}d3 d |\
(ed)(e^f) | g2 (g/a/b) | G2 Ted/B/ | A3 :|
